X:140
T:The Kitty Cat Jig
R:jig
C:Bruce Osborne - April 2002
Z:bosborne@kos.net
M:6/8
L:1/8
K:C
C2 C EGE|FGA G2 c|BAB DEF|AGG G,A,B,|
C2 C EGE|FGA G2 c|BAB DEF|EDB, C3:|
|:cBc ege|fga g2 e|cBc ege|edc Bdd|
cBc ege|fga g2 e|cBc ege|dcB c3:|
